!!!OTL: LEBE WOHL ES NAHT DIE STUNDE
!!!ARE: Europa, Mitteleuropa, Deutschland; France, Elsass, Weissenburg
!!!SCT: E1413
!!!YEM: Copyright 1995, estate of Helmut Schaffrath.
**kern
*ICvox
*Ivox
*M3/4
*k[b-e-a-d-]
*A-:
{8.a-
16b-
=1
4.cc
8dd-
8.cc
16b-
=2
4cc
8a-}
{8cc
8ee-
8a-
=3
4.b-
8cc
8dd-
8cc
=4
2b-
4r}
=5
{8.b-
16a-
8g
8f
8e-
8d-
=6
8c
8e-
4cc}
{8e-
8e-
=7
8.dd-
16g
4cc
4b-
=8
2a-
4r}
=9
{4a-
4a-
4a-
=10
4ff
4dd-}
{4a-
=11
4.dd-
8ee-
4ff
=12
4ee-
4cc
4r}
=13
{4cc
4b-
4cc
=14
4ee-
4dd-}
{4e-
=15
4.cc
8cc
4b-
=16
2a-}
==
!!!AGN: Staende -, Soldaten - Lied, Krieg, Abschied
!!!ONB: ESAC (Essen Associative Code) Database: ERK3
!!!AMT: simple triple
!!!AIN: vox
!!!EED: Helmut Schaffrath
!!!EEV: 1.0
*-
